Numix-GalliumOS/64/mimetypes/application-vnd.oasis.opendocument.text-template.svg

<svg xmlns="http://www.w3.org/2000/svg" xmlns:xlink="http://www.w3.org/1999/xlink" width="64px" height="64px" viewBox="0 0 64 64" version="1.1">
<g id="surface1">
<path style=" stroke:none;fill-rule:nonzero;fill:rgb(20.392157%,40.784314%,80.784314%);fill-opacity:1;" d="M 10.6875 0 C 9.3125 0 8 1.378906 8 2.8125 L 8 61.1875 C 8 62.539062 9.390625 64 10.6875 64 L 53.3125 64 C 54.609375 64 56 62.539062 56 61.1875 L 56 2.75 C 56 1.402344 54.597656 0 53.25 0 Z M 10.6875 0 "/>
<path style=" stroke:none;fill-rule:evenodd;fill:rgb(97.647059%,97.647059%,97.647059%);fill-opacity:1;" d="M 20 20 L 32 20 L 32 30 L 20 30 Z M 20 20 "/>
<path style=" stroke:none;fill-rule:evenodd;fill:rgb(97.647059%,97.647059%,97.647059%);fill-opacity:1;" d="M 34 20 L 44 20 L 44 22 L 34 22 Z M 34 20 "/>
<path style=" stroke:none;fill-rule:evenodd;fill:rgb(97.647059%,97.647059%,97.647059%);fill-opacity:1;" d="M 34 24 L 44 24 L 44 26 L 34 26 Z M 34 24 "/>
<path style=" stroke:none;fill-rule:evenodd;fill:rgb(97.647059%,97.647059%,97.647059%);fill-opacity:1;" d="M 34 28 L 44 28 L 44 30 L 34 30 Z M 34 28 "/>
<path style=" stroke:none;fill-rule:evenodd;fill:rgb(97.647059%,97.647059%,97.647059%);fill-opacity:1;" d="M 20 32 L 44 32 L 44 34 L 20 34 Z M 20 32 "/>
<path style=" stroke:none;fill-rule:evenodd;fill:rgb(97.647059%,97.647059%,97.647059%);fill-opacity:1;" d="M 20 36 L 44 36 L 44 38 L 20 38 Z M 20 36 "/>
<path style=" stroke:none;fill-rule:evenodd;fill:rgb(97.647059%,97.647059%,97.647059%);fill-opacity:1;" d="M 20 40 L 44 40 L 44 42 L 20 42 Z M 20 40 "/>
<path style=" stroke:none;fill-rule:nonzero;fill:rgb(0%,0%,0%);fill-opacity:0.196078;" d="M 8 48 L 8 61.335938 C 8 62.632812 9.375 64 10.664062 64 L 53.335938 64 C 54.625 64 56 62.632812 56 61.335938 L 56 48 Z M 8 48 "/>
<path style=" stroke:none;fill-rule:nonzero;fill:rgb(100%,100%,100%);fill-opacity:1;" d="M 20.3125 56.597656 C 20.3125 57.121094 20.328125 57.617188 20.371094 58.078125 C 20.421875 58.53125 20.511719 58.925781 20.644531 59.265625 C 20.78125 59.601562 20.980469 59.867188 21.226562 60.0625 C 21.476562 60.261719 21.804688 60.359375 22.214844 60.359375 C 22.621094 60.359375 22.941406 60.261719 23.1875 60.0625 C 23.445312 59.867188 23.640625 59.601562 23.773438 59.265625 C 23.914062 58.910156 24.003906 58.515625 24.046875 58.0625 C 24.09375 57.609375 24.117188 57.121094 24.117188 56.597656 C 24.117188 56.078125 24.09375 55.589844 24.046875 55.136719 C 24.003906 54.667969 23.914062 54.273438 23.773438 53.933594 C 23.640625 53.597656 23.453125 53.332031 23.203125 53.136719 C 22.957031 52.9375 22.628906 52.839844 22.214844 52.839844 C 21.804688 52.839844 21.476562 52.9375 21.226562 53.136719 C 20.980469 53.332031 20.78125 53.605469 20.644531 53.953125 C 20.511719 54.289062 20.421875 54.683594 20.371094 55.136719 C 20.328125 55.589844 20.3125 56.078125 20.3125 56.597656 M 17.882812 56.597656 C 17.882812 54.742188 18.269531 53.339844 19.027344 52.402344 C 19.792969 51.445312 20.855469 50.976562 22.214844 50.976562 C 23.625 50.976562 24.703125 51.445312 25.4375 52.402344 C 26.179688 53.339844 26.550781 54.742188 26.550781 56.597656 C 26.550781 58.457031 26.171875 59.859375 25.421875 60.8125 C 24.671875 61.753906 23.609375 62.222656 22.234375 62.222656 C 20.824219 62.222656 19.746094 61.753906 18.996094 60.8125 C 18.253906 59.859375 17.882812 58.457031 17.882812 56.597656 "/>
<path style=" stroke:none;fill-rule:nonzero;fill:rgb(100%,100%,100%);fill-opacity:1;" d="M 36.296875 51.214844 L 36.296875 52.996094 L 33.132812 52.996094 L 33.132812 62 L 30.71875 62 L 30.71875 52.996094 L 27.554688 52.996094 L 27.554688 51.214844 L 36.296875 51.214844 "/>
<path style=" stroke:none;fill-rule:nonzero;fill:rgb(100%,100%,100%);fill-opacity:1;" d="M 46.007812 51.214844 L 46.007812 52.996094 L 42.835938 52.996094 L 42.835938 62 L 40.429688 62 L 40.429688 52.996094 L 37.265625 52.996094 L 37.265625 51.214844 L 46.007812 51.214844 "/>
</g>
</svg>

<svg xmlns="http://www.w3.org/2000/svg" viewBox="0 0 64 64">
 <g>
  <path d="m 10.688 0 c -1.375 0 -2.688 1.379 -2.688 2.813 l 0 58.38 c 0 1.352 1.391 2.813 2.688 2.813 l 42.625 0 c 1.297 0 2.688 -1.461 2.688 -2.813 l 0 -58.44 c 0 -1.348 -1.402 -2.75 -2.75 -2.75 m -42.563 0" style="fill:#3468ce;fill-opacity:1;stroke:none;fill-rule:nonzero"/>
  <path d="m 20 20 l 12 0 l 0 10 l -12 0 m 0 -10" style="fill:#f9f9f9;fill-opacity:1;stroke:none;fill-rule:evenodd"/>
  <path d="m 34 20 l 10 0 l 0 2 l -10 0 m 0 -2" style="fill:#f9f9f9;fill-opacity:1;stroke:none;fill-rule:evenodd"/>
  <path d="m 34 24 l 10 0 l 0 2 l -10 0 m 0 -2" style="fill:#f9f9f9;fill-opacity:1;stroke:none;fill-rule:evenodd"/>
  <path d="m 34 28 l 10 0 l 0 2 l -10 0 m 0 -2" style="fill:#f9f9f9;fill-opacity:1;stroke:none;fill-rule:evenodd"/>
  <path d="m 20 32 l 24 0 l 0 2 l -24 0 m 0 -2" style="fill:#f9f9f9;fill-opacity:1;stroke:none;fill-rule:evenodd"/>
  <path d="m 20 36 l 24 0 l 0 2 l -24 0 m 0 -2" style="fill:#f9f9f9;fill-opacity:1;stroke:none;fill-rule:evenodd"/>
  <path d="m 20 40 l 24 0 l 0 2 l -24 0 m 0 -2" style="fill:#f9f9f9;fill-opacity:1;stroke:none;fill-rule:evenodd"/>
  <path d="m 8 48 l 0 13.336 c 0 1.297 1.375 2.664 2.664 2.664 l 42.672 0 c 1.289 0 2.664 -1.367 2.664 -2.664 l 0 -13.336 m -48 0" style="fill:#000;fill-opacity:0.196;stroke:none;fill-rule:nonzero"/>
  <path d="m 20.313 56.6 c 0 0.523 0.016 1.02 0.059 1.48 c 0.051 0.453 0.141 0.848 0.273 1.188 c 0.137 0.336 0.336 0.602 0.582 0.797 c 0.25 0.199 0.578 0.297 0.988 0.297 c 0.406 0 0.727 -0.098 0.973 -0.297 c 0.258 -0.195 0.453 -0.461 0.586 -0.797 c 0.141 -0.355 0.23 -0.75 0.273 -1.203 c 0.047 -0.453 0.07 -0.941 0.07 -1.465 c 0 -0.52 -0.023 -1.01 -0.07 -1.461 c -0.043 -0.469 -0.133 -0.863 -0.273 -1.203 c -0.133 -0.336 -0.32 -0.602 -0.57 -0.797 c -0.246 -0.199 -0.574 -0.297 -0.988 -0.297 c -0.41 0 -0.738 0.098 -0.988 0.297 c -0.246 0.195 -0.445 0.469 -0.582 0.816 c -0.133 0.336 -0.223 0.73 -0.273 1.184 c -0.043 0.453 -0.059 0.941 -0.059 1.461 m -2.43 0 c 0 -1.855 0.387 -3.258 1.145 -4.195 c 0.766 -0.957 1.828 -1.426 3.188 -1.426 c 1.41 0 2.488 0.469 3.223 1.426 c 0.742 0.938 1.113 2.34 1.113 4.195 c 0 1.859 -0.379 3.262 -1.129 4.215 c -0.75 0.941 -1.813 1.41 -3.188 1.41 c -1.41 0 -2.488 -0.469 -3.238 -1.41 c -0.742 -0.953 -1.113 -2.355 -1.113 -4.215" style="fill:#fff;fill-opacity:1;stroke:none;fill-rule:nonzero"/>
  <path d="m 36.3 51.21 l 0 1.781 l -3.164 0 l 0 9 l -2.414 0 l 0 -9 l -3.164 0 l 0 -1.781 l 8.742 0" style="fill:#fff;fill-opacity:1;stroke:none;fill-rule:nonzero"/>
  <path d="m 46.01 51.21 l 0 1.781 l -3.172 0 l 0 9 l -2.406 0 l 0 -9 l -3.164 0 l 0 -1.781 l 8.742 0" style="fill:#fff;fill-opacity:1;stroke:none;fill-rule:nonzero"/>
 </g>
</svg>
